X:1
T:Se la doglia e'l martire
T:Constantijn Huygens
T:Se la doglia e'l martire
C:Constantijn Huygens
%%score 1 2 { ( 3 5 ) | 4 }
L:1/8
Q:1/4=78
M:4/4
K:Eb
V:1 treble nm="Soprano" snm="S"
V:2 treble transpose=-12 nm="Viola da Gamba" snm="V.Gam."
V:3 treble nm="Harpsichord" snm="Hpschd."
V:5 treble 
V:4 bass 
V:1
 z2 cc c4- | c2 BG A4- | A2 G2 z2 BB | B4 =B2 BB | c8- | c2 d2 =e2 ee | f3 c d2 d2 | z fde f3 ^f | %8
w: Se la do-|* glia e'l mar- ti-|* re Non può|far _ mi mo-|ri-|* re, Mo- stra- mi al-|men, A- mo- re,|Co- me di do- glia e|
 g3 B B4- | B2 =A/B/c/B/ A4 | G8 :: g8 | eeec edfc | dBdd g2 d2 | e2 c2 z2 GG | c2 BB =AABc | %16
w: di pia- cer|_ si _ _ _ mo-|re.|Voi|che la mor- te mia ne gl'oc- chi ha-|ve- te, E la mia vi- ta|sie- te, Di- te,|di- te ch'io mo- ra a tut- te|
 dd =A2 d2 B2 | =A3 A =BBcc | d4 e2 =e2 | f2 c2 d2 B2 | =A2 G2 z/ G/A/B/ c/d/e/f/ | g2 G2 =B2 c2 | %22
w: l'ho- re, Ch'io son con-|ten- to po- i Mil- le|vol- te mo-|rir, ma in brac- cio a|vo- i, ma _ _ _ _ _ _|_ in brac- cio a|
 d8 | c8 :| %24
w: vo-|i.|
V:2
 C8 | C8 | E8 | E4 D4 | C8 | =B,4 C4 | F4 B,4 | B4 =A4 | G4 C4 | D8 | G8 :: E8 | A6 =A2 | B4 =B4 | %14
 c4 C4 | C4 F2 E2 | D4 D4 | D4 G2 c2- | c2 =B2 c4 | =A4 B3 c | d2 e2 E4 | E3 F G4 | G8 | C8 :| %24
V:3
 [CEGc]8 | [CEG]4 [CFA]4 | [CEG]4 [B,EG]4 | [B,EGB]4 [=B,DG]4 | E8 | [DG]4 c2 B2 | [F=Ac]4 [FBd]4 | %7
 [DFB]4 [D=Ad]4 | [DBd]4 [EG]4 | B4 G/^F/G/F/G/F/=E/F/ | [=B,DG]8 :: [GBe]8 | %12
 [EAc]4 [EAd]2 [F=Ac]2 | [FBd]4 [G=Bd]4 | [EGc]4 [CEG]4 | [C=EGc]4 [CF=Ac]4 | [DF=A]4 [DB]4 | %17
 [D^F=A]4 [DG=B]2 [=EGc]2 | [DGd]4 e2 =e2 | [F=Ac]4 [FBd]4 | [F=Ad]2 [GBd]2 [EGc]4 | %21
 [EGB]4 [DG]2 [CEG]2 | D/E/F/D/ G/F/E/D/ C/D/E/D/ D>C | [CEGc]8 :| %24
V:4
 C,8 | C,8 | E,8 | E,4 D,4 | C,8 | =B,,4 C,4 | F,4 B,,4 | B,4 =A,4 | G,4 C,4 | D,8 | G,8 :: E,8 | %12
 A,6 =A,2 | B,4 =B,4 | C4 C,4 | C,4 F,2 E,2 | D,4 D,4 | D,4 G,2 C2- | C2 =B,2 C4 | =A,4 B,3 C | %20
 D2 E2 E,4 | E,3 F, G,4 | G,8 | C,8 :| %24
V:5
 x8 | x8 | x8 | x8 | [CG]4 [B,F]2 [A,E]2 | G,4 [C=EG]4 | x8 | x8 | x8 | [B,D]4 [=A,D]4 | x8 :: x8 | %12
 x8 | x8 | x8 | x8 | D4 ^F2 G2 | x8 | D4 [Gc]4 | x8 | x8 | x8 | [G,=B,]8 | x8 :| %24

